X: 43047
T: Wind Of Change, The
R: waltz
M: 3/4
K: Gmajor
|:GD GA B2|E2E2 D2|G2G2 G2|FE D2D2|
GD GA B2|E2E2 D2|EG D2|DA FG|
GD GA B2|E2E2 D2|G2G2 G2|FE D2D2|
[1 cd ef g2|B2B2 dB|AD GA Bd|A2A2 GF:|
[2 cd ef g2|B2B2 dB|AD GA Bd|gf dA GF||
|:c2cd cB|A2A2 G2|FG Ad zF|FG Ad Ad|
[1 c2cd cB|A2A2 G2|F2F2 FG|A2A2 z2:|
[2 c2cd cB|A2A2 G2|F2F2 FG|A2A2 GF||

